Sources/FrostedUI/Resources/Icons.xcassets/arrowUpRightFromSquare12.imageset/arrow-up-right-from-square-12.svg

<svg width="12" height="12" viewBox="0 0 12 12" fill="none" xmlns="http://www.w3.org/2000/svg" data-fui-icon="true">
  <path
    d="M4.625 2.125C5.03921 2.125 5.375 2.46079 5.375 2.875C5.375 3.28921 5.03921 3.625 4.625 3.625H3.4375C3.16357 3.625 3.00014 3.62547 2.87891 3.63477C2.81273 3.63985 2.78062 3.64635 2.76855 3.64941C2.71626 3.67415 2.67415 3.71626 2.64941 3.76855C2.64635 3.78062 2.63985 3.81273 2.63477 3.87891C2.62547 4.00014 2.625 4.16357 2.625 4.4375V8.52539C2.625 8.81756 2.6252 8.99202 2.63574 9.12109C2.64558 9.24118 2.6607 9.25468 2.65234 9.23828C2.66433 9.26181 2.67981 9.28333 2.69824 9.30176L2.76172 9.34766L2.76953 9.34863C2.78606 9.35247 2.81932 9.35938 2.87891 9.36426C3.00797 9.3748 3.18244 9.375 3.47461 9.375H7.52539C7.81756 9.375 7.99202 9.3748 8.12109 9.36426C8.24117 9.35442 8.25468 9.3393 8.23828 9.34766C8.28527 9.32372 8.32372 9.28527 8.34766 9.23828C8.3393 9.25468 8.35442 9.24117 8.36426 9.12109C8.3748 8.99202 8.375 8.81756 8.375 8.52539V7C8.375 6.58579 8.71079 6.25 9.125 6.25C9.53921 6.25 9.875 6.58579 9.875 7V8.52539C9.875 8.79289 9.87509 9.03888 9.8584 9.24316C9.84097 9.45621 9.80188 9.68972 9.68457 9.91992C9.51684 10.249 9.24903 10.5168 8.91992 10.6846C8.68972 10.8019 8.45621 10.841 8.24316 10.8584C8.03888 10.8751 7.79289 10.875 7.52539 10.875H3.47461C3.20711 10.875 2.96112 10.8751 2.75684 10.8584C2.54379 10.841 2.31027 10.8019 2.08008 10.6846V10.6836C1.75109 10.5158 1.48308 10.2488 1.31543 9.91992C1.19813 9.68972 1.15903 9.45621 1.1416 9.24316C1.12491 9.03888 1.125 8.79289 1.125 8.52539V4.4375C1.125 4.18677 1.12495 3.95649 1.13965 3.76465C1.15496 3.56487 1.18952 3.34574 1.29297 3.12695C1.46608 2.76095 1.76095 2.46608 2.12695 2.29297C2.34574 2.18952 2.56487 2.15496 2.76465 2.13965C2.95649 2.12495 3.18677 2.125 3.4375 2.125H4.625ZM10.125 1.125C10.5392 1.125 10.875 1.46079 10.875 1.875V5.125C10.875 5.53921 10.5392 5.875 10.125 5.875C9.71079 5.875 9.375 5.53921 9.375 5.125V3.68555L6.03027 7.03027C5.73738 7.32317 5.26262 7.32317 4.96973 7.03027C4.67683 6.73738 4.67683 6.26262 4.96973 5.96973L8.31445 2.625H6.875C6.46079 2.625 6.125 2.28921 6.125 1.875C6.125 1.46079 6.46079 1.125 6.875 1.125H10.125Z"
    fill="currentColor"
  />
</svg>

<svg xmlns="http://www.w3.org/2000/svg" width="12" height="12" fill="none" data-fui-icon="true" viewBox="0 0 12 12"><path fill="currentColor" d="M4.625 2.125a.75.75 0 0 1 0 1.5H3.438c-.274 0-.438 0-.56.01a1 1 0 0 0-.11.014.25.25 0 0 0-.119.12 1 1 0 0 0-.014.11 8 8 0 0 0-.01.559v4.087c0 .293 0 .467.01.596.01.12.026.134.017.117a.3.3 0 0 0 .046.064l.064.046h.008q.022.007.109.016c.129.01.303.011.596.011h4.05c.293 0 .467 0 .596-.01.12-.01.134-.026.117-.017a.25.25 0 0 0 .11-.11c-.009.017.006.003.016-.117.01-.129.011-.303.011-.596V7a.75.75 0 0 1 1.5 0v1.525c0 .268 0 .514-.017.718a1.8 1.8 0 0 1-.173.677c-.168.329-.436.597-.765.765-.23.117-.464.156-.677.173-.204.017-.45.017-.718.017h-4.05c-.268 0-.514 0-.718-.017a1.8 1.8 0 0 1-.677-.173v-.001a1.75 1.75 0 0 1-.765-.764 1.8 1.8 0 0 1-.173-.677c-.017-.204-.017-.45-.017-.718V4.437c0-.25 0-.48.015-.672.015-.2.05-.42.153-.638a1.75 1.75 0 0 1 .834-.834c.219-.103.438-.138.638-.153.191-.015.422-.015.672-.015zm5.5-1a.75.75 0 0 1 .75.75v3.25a.75.75 0 0 1-1.5 0v-1.44L6.03 7.03a.75.75 0 1 1-1.06-1.06l3.344-3.345H6.875a.75.75 0 0 1 0-1.5z"/></svg>
